X: 40752
T: Touch Me If You Dare
R: reel
M: 4/4
K: Gmajor
dc|BG G2 AGEG|BG G2 (3Bcd gd|B3 G AGED|EAAG A2 GA|
BG G2 AGEG|BG G2 (3Bcd gd|B3G AGED|EGGF G2:|
|:Bc|dega bgag|e.g z d e.g z 2d|dega bgag|eaag a2 ge|
dega bgag|e.g z d e.g z2|BB2 G AGED|EG GF G2:|

